icon/pk/peach.svg

<svg viewBox="0 0 48 48" fill="none" xmlns="http://www.w3.org/2000/svg" height="1em" width="1em">
  <path d="M10.0772 13.4315C15.0471 7.87006 23.6868 10.3148 27 12.0001C28.6566 11.3681 33.1972 10.6427 36.1791 12.6651C39.9065 15.193 44.6027 21.9042 40.2542 31.3839C36.7753 38.9676 27.689 42.1575 24.3758 43.0001C21.8909 41.9468 16.4303 39.832 10.6066 34.5519C5.32574 29.764 3.86498 20.3833 10.0772 13.4315Z" fill="#2F88FF" stroke="black" stroke-width="4" stroke-linejoin="round"/>
  <path d="M27 12C25.0761 12.75 21.2283 14.25 19.1295 18.75C16.8741 23.586 18.6048 27.75 19.1295 30" stroke="black" stroke-width="4" stroke-linecap="round" stroke-linejoin="round"/>
  <path d="M21 4C21.3333 4.16667 23.5 4.5 24 6.5C24.4372 8.24895 23.6667 9.33333 23.5 10.5" stroke="black" stroke-width="4" stroke-linecap="round"/>
  <path d="M28.479 11.3285C27.5253 11.2955 26.8667 10.455 27.0628 9.52106C27.3331 8.23362 27.9454 6.47675 29.3295 5.39228C30.7135 4.3078 32.5658 4.13344 33.8806 4.17892C34.8343 4.21191 35.4929 5.05244 35.2968 5.98635C35.0265 7.2738 34.4141 9.03066 33.0301 10.1151C31.646 11.1996 29.7937 11.374 28.479 11.3285Z" stroke="black" stroke-width="4"/>
</svg>

<svg width="48" height="48" fill="none" xmlns="http://www.w3.org/2000/svg"><path d="M10.077 13.431c4.97-5.56 13.61-3.116 16.923-1.43 1.657-.633 6.197-1.358 9.18.664 3.727 2.528 8.423 9.24 4.074 18.719C36.775 38.968 27.69 42.157 24.376 43c-2.485-1.053-7.946-3.168-13.77-8.448-5.28-4.788-6.741-14.169-.529-21.12Z" fill="#2F88FF" stroke="#000" stroke-width="4" stroke-linejoin="round"/><path d="M27 12c-1.924.75-5.772 2.25-7.87 6.75-2.256 4.836-.525 9 0 11.25" stroke="#000" stroke-width="4" stroke-linecap="round" stroke-linejoin="round"/><path d="M21 4c.333.167 2.5.5 3 2.5.437 1.749-.333 2.833-.5 4" stroke="#000" stroke-width="4" stroke-linecap="round"/><path d="M28.479 11.329a1.477 1.477 0 0 1-1.416-1.808c.27-1.287.882-3.044 2.267-4.129 1.384-1.084 3.236-1.259 4.55-1.213a1.477 1.477 0 0 1 1.417 1.807c-.27 1.288-.883 3.045-2.267 4.13-1.384 1.084-3.236 1.258-4.551 1.213Z" stroke="#000" stroke-width="4"/></svg>
